X: 2
T: The Boys Of Ballivanich
R: reel
M: 4/4
L: 1/8
K: Bmin
f2 fe dBBd |A ~B3 faag |f2 fe dBBd |cA A/2A/2A eAce |f2 fe dBBd |A ~B3 faaf |g2 gf efed |cA A/2A/2A eAce:|fBdA B3 d |e ~f3 faag |fBdA B3 d |cA A/2A/2A eAce |fBdA B3 d |e ~f3 faaf |g2 fg efed |cA A/2A/2A [1eAce:|[2eAcA|B2 ag effe |dB B/2B/2B dffe |c2 af efed |cA A/2A/2A eAce |d2 ag effe |dB B/2B/2B df f/2f/2f |f-gfg efed |cA A/2A/2A [1eAcA:|[2eAce|


Tune 5772	Setting 5772

